!! 00008] TT[tb
!! Eigene Aufnahme
!!!OTL: No wen ji ya
!!!ARE: Neimeng Zhelimumeng
!! Ethnic Group: Menggu
!! IV, 317
!!!SCT: C0185
!!!YEM: Copyright 1995, estate of Helmut Schaffrath.
**kern
*ICvox
*Ivox
!! Mixed meters:  4/4; 3/4
*M3/4
*k[b-e-]
*B-:
{4gg
8ccc
8bb-
8gg
8ff
4dd
=1
8ccc
8fff
2ddd}
=2
*M4/4
{8ccc
8ddd
8ggg
8fff
8ddd
8ccc
8bb-
8gg
=3
*M3/4
8bb-
8ddd
2ccc}
=4
*M4/4
{8bb-
8ccc
4ddd
8ddd
8fff
4gg
=5
*M3/4
8ff
8gg
4.bb-
8ccc}
=6
*M4/4
{8ff
8gg
8ccc
8bb-
8gg
8ff
8dd
8dd
=7
8ff
8bb-
2gg}
==
!!!AGN: Duandiao(si xiang qu). JianÅ sixiang
!! prosaisch. Saenger: Chao Lun Batou; 2 Strophen; leichte rh. Variante
!!!ONB: ESAC (Essen Associative Code) Database: CHINA
!!!AMT: irregular
!!!AIN: vox
!!!EED: Helmut Schaffrath
!!!EEV: 1.0
*-
